X: 1007
T: Drill: VII Scale Up Down
C: Rodriguez
M: 4/4
L: 1/4
%%staves (S1V1 S1V2) | (S2V1 S2V2)
V: S1V1 clef=treble
V: S1V2
V: S2V1 clef=bass
V: S2V2
K: C
[V: S1V1] [Q:1/4=72] C D E F | G A B c | c B A G | F E D C | C4 |]
[V: S1V2] A, B, C D | E F G A | A G F E | D C B, A, | A,4 |]
[V: S2V1] F, G, A, B, | C D E F | F E D C | B, A, G, F, | F,4 |]
[V: S2V2] D, E, F, G, | A, B, C D | D C B, A, | G, F, E, D, | D,4 |]

